X:176
T:The Boston Urban Ceilidh
C:Hanneke Cassel
R:reel
M:4/4
L:1/8
K:D
|: f3g fedf- | ff2g fedc | BAGB2 AGB | cBAB cdeg |
f3g fed2 | ff2g fedc | BAGB2 AGB [1 cdec d3e :|2 cdec defg |:
ad (3ddd adad | aB (3BBB gBbB | ac (3ccc acac | fgfe defg |
ad (3ddd adad | aB (3BBB gBbg | ac (3ccc acac | fgfe d4 :|
